X:1
T:O Christians, Leagued Together
T:George C. F. Haas
T:O Christians, Leagued Together
T:Public Domain
T:Public Domain
C:George C. F. Haas
Z:Public Domain
%%score ( 1 2 ) ( 3 4 )
L:1/8
M:4/4
K:C
V:1 treble 
V:2 treble 
V:3 bass 
V:4 bass 
V:1
 D2 | [D^F]2 D2 [^CG]2 [CE]2 | [DB]4 [DA]2 [D^F]2 | E2 E2 [^CE]3 [D^F] x | [^CE]6 [CE]2 | %5
w: 1.~O|ians, leagued to- ge-|to bat- tle|for the right A-|rise and|
w: 2.~Then|ward’ be the war|and on- ward|still, so long As|we have|
w: 3.~We|ly bear as ban-|a cross with-|in the heart, To|show that|
 [D^F]3 [DF] [D^G]3 [DG] | [EA]2 [EA]2 [^FB]2 [Fc]2 | [E^c]4 (E2 D2) | [^CA]6 [CE]2 | %9
w: don your ar- mor,|put the foe to|flight! We’ve *|en our|
w: self to con- quer,|souls to cheer with|song. Let *|the mar-|
w: we have chos- en|Christ, the bet- ter|part. Then *|and peace|
 [^CG]3 [CG] [CG]2 [CG]2 | [E^F]4 [DF]2 [DF]2 | [^CE]3 [CE] [C^F]2 [^A,C]2 | [B,D]6 D2 | %13
w: al- le- giance to|serve with- out|sur- cease The might-|y Lord|
w: tial mu- sic, ring|out the bu-|gle call To ral-|ly for|
w: and com- fort shall|blos- som as|a rose, Un- til|our earth-|
 [DB]3 [DB] [G^c]3 [Gc] | [Dd]2 D6 | z2 [C^D]2 E2 [EG]2 | [D^F]4 [^CE]4 | D6 ||"^Refrain" ^c2 | %19
w: ar- mies and gen-|tle Prince|Peace. * *||||
w: con- flict our peo-|ple one|all. All hail,|our glor-|ious|ior!|
w: bless- ings the worth|of Heav’n|close. * *||||
 [^Fd]3 [FA] F2 [EA]2 | (G2 E2) [^Fd]2 [EA]2 | [DB]3 [DG] [De]2 [^Gd]2 | [A^c]6 A2 | %23
w: ||||
w: march where Thou hast|trod, * To seek|house of tri- umph,|The ci-|
w: ||||
 [A^f]2 [G^c]2 [^Fd]2 [E^A]2 | ([DB]2 [C^F]2) [B,G]2 [B,E]2 | [DA]2 [D^A]2 [DB]2 [B,G^c]2 | %26
w: |||
w: of our God. *|||
w: |||
 [D^Fd]6 |] %27
w: |
w: |
w: |
V:2
 D2 | x2 D2 x4 | x8 | x9 | x8 | x8 | x8 | x4 B4 | x8 | x8 | x8 | x8 | x6 D2 | x8 | x2 D6 | x8 | %16
w: Christ-|ther||||||giv-|||||of||of||
w: ‘on-|cry;||||||sound|||||the||and||
w: proud-|ner||||||joy|||||ly||dis-||
 x8 | D6 || ^c2 | x8 | d4 x4 | x8 | x6 A2 | x8 | x8 | x8 | x6 |] %27
w: |||||||||||
w: |Sav-|We||Thy||ty|||||
w: |||||||||||
V:3
 [D,^F,]2 | [D,A,]2 [^F,A,]2 [E,A,]2 [G,A,]2 | [F,^G,]4 [^F,A,]2 [F,A,]2 | %3
 [G,B,]2 [G,B,]2 E,2 z A, x | A,6 A,2 | [D,A,]3 [D,A,] [B,,E,]3 [B,,E,] | %6
 [^C,A,]2 [C,A,]2 [D,A,]2 [^D,A,]2 | [E,A,]4 [E,^G,]4 | [A,,E,]6 A,2 | %9
 [A,,E,]3 [A,,E,] [^A,,E,]2 [A,,E,]2 | [B,,B,]4 [B,,B,]2 [B,,D,]2 | %11
 [^A,,^F,]3 [A,,F,] [A,,F,]2 [^F,,F,]2 | [B,,^F,]6 [B,,B,]2 | [G,B,]3 [G,B,] [E,A,]3 [E,A,] | %14
 [^F,A,]2 [F,A,]6 | z2 [^F,A,]2 [G,B,]2 [E,B,]2 | A,4 [A,,G,]4 | [D,^F,]6 || A,2 | %19
 [D,A,]3 [D,A,] [D,D]2 [D,^C]2 | (B,2 ^A,2) [D,=A,]2 [^F,A,]2 | [G,B,]3 B, [^G,B,]2 [E,E]2 | %22
 [A,E]6 [A,^C]2 | D2 [^A,E]2 [B,D]2 [^F,^C]2 | ([G,B,]2 [^D,A,]2) [E,G,]2 G,2 | %25
 [A,,^F,]2 [A,,=F,]2 [A,,E,G,]2 [A,,E,G,]2 | [D,A,]6 |] %27
V:4
 x2 | x8 | x8 | x4 A,3 D,2 | A,6 A,2 | x8 | x8 | x8 | x6 A,2 | x8 | x8 | x8 | x8 | x8 | x8 | x8 | %16
 x8 | x6 || A,2 | x8 | D,4 x4 | x8 | x8 | x8 | x8 | x8 | x6 |] %27

